X: 11055
T: LAURIE'S SQUEEZE-BOX
C: Bob McQuillen 5 April 01
B: Bob's Note Book 11 #55
%R: march
Z: 2020 John Chambers <jc:trillian.mit.edu>
M: C
L: 1/4
K: Em
EF \
| G>A GF | EF GA | Be e>d | e2 gf | e>d BG | AGB>A | GED"^*"[B,E] | D2 EF |
| G>A GF | EF GA | Be e>f | g2 fe | ed BG | AG B>A | GE ED | E2 ||
|| GA \
| B>c BA | GD g>f | ed BA | B2 ef | g>f gf | edBA | "Em"GE "D"FE | "Bm"D2 GA |
| B>c BA | GE GA | Be e>d | e2 g>e | dB e>d | BG A>B | GE ED | E2 |]
%%begintext align
%% For Laurie Andres, dear
%% friend and great accordion player from Seattle, WA.
%% He, along with Cathie Whitesides, fiddle, and me on piano,
%% get to play together every so often as the "Rythm Rollers"
%% (don't ask), and it's always great fun. Hope it happens
%% soon, Laurie! (Don't you, Cathie?!)
%%endtext
%text * The E is labelled "flute note".

%%sep 1 1 500

%%sep 1 1 500

